X:1
T:[ID 2-114]
T:[ID 2-114]
T:Bezeichnung standardisiert: Menuet [mit Trio] Men\"uet Con Trio
T:Urheber unbekannt Datum in der hier transkribierten schriftlichen Quelle: 1767
C:Urheber unbekannt
C:Datum in der hier transkribierten schriftlichen Quelle: 1767
L:1/8
M:3/4
K:Bb
V:1 treble 
V:1
 B4 (3dcB | f2 A2 a2 | b2 cgfe |{d} c4 B2 | =eg c2 B2 | Acfcaf | bg e2 cB | dB A2 BG | F6 :: %9
 f_agfed | eg=Bd c2 | egfedc | dfAc B2 | F4 (3edc | dc a2 b2 | (3gfe d2 ec | B6 :| %17
[M:3/4]"^Trio" !fermata!B,2 B,2 DE | F2 F2 F2 | G2 G2 A2 | B4 d2 | cA F4 | dB F4 | e2 e2 d2 | c6 :: %25
 c4 d2 | c2 c2 d2 | cd e2 d2 | c6 | =E2 F2 G2 | A2 B2 c2 | e2 d2 ec | B6 :| %33

